X: 1
T: Joe Derrane's
M: 6/8
L: 1/8
R: jig
K: Bmin
|: A \
| "Bm"B3  BAF | "A"AFE E2F | "D"DFA def | afe dBA | 
| "Bm"BdB BAF | "A"AFE E2F | "D"DFA def | "Bm"edB B2 :| 
|: d \
| "Em"e2e edB | "A7"~A3 "D"d2A | def ~a3 | baf afa | 
| "D"baf afa | baf edB | def afe | "Bm"dBA B2 :|
